X:22
T:Oh Suzanna
M:2/4
L:1/8
K:D
D/2E/2 | "D"FA AB | AF DE | "E7"FF ED | "A"E3 D/2E/2 |\
"D"FA AB | AF DE | "D"FF "A7"EE | "D"D3 :|]
[|: E/2F/2 | "G"G2 G2 | B B2 B | "D"AA FD | "A"E3 D/2E/2 |\
"D"FA AB | AF DE | "D"FF "A7"EE | "D"D3 :|]

